public/icon/cart.svg

<svg width="25" height="29" viewBox="0 0 25 29" fill="none" xmlns="http://www.w3.org/2000/svg">
<path d="M21.8341 19.2113H8.74116C8.52391 19.2117 8.313 19.1325 8.14307 18.9867C7.97315 18.841 7.85431 18.6373 7.80608 18.4092L5.60148 8.0655C5.56923 7.9144 5.56904 7.75742 5.60091 7.60623C5.63279 7.45504 5.69592 7.31354 5.7856 7.19226C5.87527 7.07097 5.98919 6.97303 6.11888 6.90572C6.24856 6.83841 6.39067 6.80346 6.53464 6.80347H24.0406C24.1847 6.80315 24.3271 6.83787 24.457 6.90505C24.5869 6.97223 24.7011 7.07013 24.791 7.19145C24.8809 7.31277 24.9442 7.45438 24.9762 7.60572C25.0081 7.75706 25.008 7.91423 24.9757 8.0655L22.7673 18.4092C22.7191 18.6369 22.6006 18.8404 22.431 18.9861C22.2615 19.1318 22.051 19.2112 21.8341 19.2113ZM9.50326 17.1492H21.072L22.8381 8.86767H7.73651L9.50326 17.1492Z" fill="white"/>
<path d="M10.6151 28.4224C9.88948 28.4224 9.18015 28.1906 8.57682 27.7565C7.97349 27.3223 7.50325 26.7053 7.22556 25.9833C6.94788 25.2614 6.87522 24.4669 7.01679 23.7005C7.15835 22.9341 7.50777 22.2301 8.02086 21.6775C8.53395 21.1249 9.18767 20.7486 9.89935 20.5962C10.611 20.4437 11.3487 20.522 12.0191 20.821C12.6895 21.1201 13.2625 21.6265 13.6656 22.2762C14.0687 22.926 14.2839 23.6899 14.2839 24.4713C14.2829 25.5189 13.896 26.5232 13.2082 27.2639C12.5204 28.0047 11.5878 28.4213 10.6151 28.4224ZM10.6151 22.5831C10.2682 22.5831 9.92903 22.6939 9.64057 22.9015C9.35212 23.1091 9.12731 23.4041 8.99457 23.7493C8.86184 24.0945 8.82714 24.4743 8.89487 24.8408C8.9626 25.2072 9.12971 25.5438 9.37507 25.8079C9.62044 26.0721 9.93303 26.2519 10.2733 26.3247C10.6136 26.3975 10.9663 26.36 11.2868 26.2169C11.6072 26.0739 11.8811 25.8317 12.0738 25.5209C12.2664 25.2102 12.3692 24.8449 12.3691 24.4713C12.3686 23.9706 12.1836 23.4905 11.8548 23.1365C11.5259 22.7825 11.0801 22.5835 10.6151 22.5831Z" fill="white"/>
<path d="M19.9598 28.4224C19.2342 28.4224 18.5249 28.1906 17.9215 27.7565C17.3182 27.3223 16.848 26.7053 16.5703 25.9833C16.2926 25.2614 16.22 24.4669 16.3615 23.7005C16.5031 22.9341 16.8525 22.2301 17.3656 21.6775C17.8787 21.1249 18.5324 20.7486 19.2441 20.5962C19.9558 20.4437 20.6934 20.522 21.3638 20.821C22.0342 21.1201 22.6072 21.6265 23.0103 22.2762C23.4135 22.926 23.6286 23.6899 23.6286 24.4713C23.6276 25.5189 23.2408 26.5232 22.5529 27.2639C21.8651 28.0047 20.9325 28.4213 19.9598 28.4224ZM19.9598 22.5831C19.6129 22.5831 19.2738 22.6939 18.9853 22.9015C18.6968 23.1091 18.472 23.4041 18.3393 23.7493C18.2066 24.0945 18.1719 24.4743 18.2396 24.8408C18.3073 25.2072 18.4744 25.5438 18.7198 25.8079C18.9652 26.0721 19.2778 26.2519 19.618 26.3247C19.9583 26.3975 20.311 26.36 20.6315 26.2169C20.952 26.0739 21.2259 25.8317 21.4185 25.5209C21.6112 25.2102 21.7139 24.8449 21.7138 24.4713C21.7133 23.9706 21.5283 23.4905 21.1995 23.1365C20.8706 22.7825 20.4248 22.5835 19.9598 22.5831Z" fill="white"/>
<path d="M6.53467 8.86556C6.3337 8.86554 6.13783 8.79742 5.97482 8.67084C5.8118 8.54426 5.68991 8.36565 5.6264 8.16031L3.98539 2.85169H0.957413C0.703492 2.85169 0.45997 2.74306 0.28042 2.54969C0.10087 2.35633 0 2.09407 0 1.82062C0 1.54716 0.10087 1.28491 0.28042 1.09154C0.45997 0.898181 0.703492 0.789551 0.957413 0.789551H4.67856C4.87953 0.789571 5.0754 0.857696 5.23841 0.984273C5.40143 1.11085 5.52332 1.28946 5.58683 1.4948L7.44613 7.50867C7.49406 7.66365 7.50711 7.82867 7.48421 7.99015C7.46131 8.15162 7.40312 8.30492 7.31442 8.43743C7.22573 8.56994 7.10907 8.67785 6.97405 8.75229C6.83904 8.82672 6.68954 8.86555 6.53786 8.86556H6.53467Z" fill="white"/>
</svg>

<svg xmlns="http://www.w3.org/2000/svg" width="25" height="29" fill="none"><path fill="#fff" d="M21.834 19.211H8.741a.915.915 0 0 1-.598-.224 1.044 1.044 0 0 1-.337-.578L5.601 8.066a1.109 1.109 0 0 1 0-.46c.032-.151.095-.292.185-.414a.973.973 0 0 1 .333-.286.901.901 0 0 1 .416-.103H24.04c.144 0 .286.035.416.102.13.067.244.165.334.286a1.11 1.11 0 0 1 .185.874L22.767 18.41a1.044 1.044 0 0 1-.336.577.916.916 0 0 1-.597.225ZM9.504 17.15h11.568l1.766-8.281H7.737l1.766 8.281ZM10.615 28.422a3.486 3.486 0 0 1-2.038-.666 3.903 3.903 0 0 1-1.351-1.773 4.234 4.234 0 0 1-.21-2.282 4.054 4.054 0 0 1 1.005-2.024 3.595 3.595 0 0 1 1.878-1.08 3.426 3.426 0 0 1 2.12.224c.67.3 1.243.805 1.647 1.455.403.65.618 1.414.618 2.195a4.114 4.114 0 0 1-1.076 2.793c-.688.74-1.62 1.157-2.593 1.158Zm0-5.839c-.347 0-.686.11-.974.319a1.866 1.866 0 0 0-.646.847 2.024 2.024 0 0 0-.1 1.092c.068.366.235.703.48.967s.558.444.898.517c.34.073.693.035 1.014-.108.32-.143.594-.385.787-.696.192-.31.295-.676.295-1.05 0-.5-.185-.98-.514-1.334a1.695 1.695 0 0 0-1.24-.554ZM19.96 28.422a3.486 3.486 0 0 1-2.038-.666 3.903 3.903 0 0 1-1.352-1.773 4.235 4.235 0 0 1-.209-2.282 4.054 4.054 0 0 1 1.005-2.024 3.595 3.595 0 0 1 1.878-1.08 3.426 3.426 0 0 1 2.12.224c.67.3 1.243.805 1.646 1.455a4.17 4.17 0 0 1 .619 2.195 4.114 4.114 0 0 1-1.076 2.793c-.688.74-1.62 1.157-2.593 1.158Zm0-5.839c-.347 0-.686.11-.975.319a1.865 1.865 0 0 0-.646.847 2.025 2.025 0 0 0-.1 1.092c.068.366.235.703.48.967.246.264.559.444.899.517.34.073.693.035 1.014-.108.32-.143.594-.385.787-.696.192-.31.295-.676.295-1.05 0-.5-.186-.98-.514-1.334a1.695 1.695 0 0 0-1.24-.554Z"/><path fill="#fff" d="M6.535 8.866a.912.912 0 0 1-.56-.195 1.03 1.03 0 0 1-.349-.51l-1.64-5.31H.956A.924.924 0 0 1 .28 2.55 1.073 1.073 0 0 1 0 1.82c0-.273.1-.535.28-.728A.924.924 0 0 1 .957.79H4.68c.2 0 .396.068.56.194.162.127.284.305.348.51l1.86 6.015a1.107 1.107 0 0 1-.133.928.981.981 0 0 1-.34.315.902.902 0 0 1-.436.114h-.003Z"/></svg>
